X:9
T:The Rising of the Moon                                                                            
M:C                                                                                                 
K:D                                                                                                 
D3 E F2 G2|A2 d2 c A3|F3 A G2 E2|D2 D2 [E4C4]|\                                                     
D3 E F2 G2|A2 d2 c A3|F3 A G2 E2|E2 D2 D4||                                                         
A2 B2 c2 d2|e2 d2 c A3|F3 G A2 B2|c2 d2 A4|\                                                        
A2 B2 c2 d2|e2 d2 c A3|F3 A G2 E2|E2 D2 D4||
